nuke/Workspaces/OCIO/config.ocio
ocio_profile_version: 1

search_path: luts
strictparsing: true
luma: [0.2126, 0.7152, 0.0722]

description: An ACES config generated from python

roles:
  color_picking: Output - Rec.709
  color_timing: ACES - ACEScc
  compositing_linear: ACES - ACEScg
  compositing_log: Input - ARRI - V3 LogC (EI800) - Wide Gamut
  data: Utility - Raw
  default: ACES - ACEScg
  matte_paint: Output - Rec.709
  reference: Utility - Raw
  rendering: ACES - ACEScg
  scene_linear: ACES - ACEScg
  texture_paint: ACES - ACEScg

displays:
  ACES:
    - !<View> {name: NoGrade, colorspace: ACES - ACEScg, looks: NoGrade} 
    - !<View> {name: ACES_Rec.709, colorspace: Output - Rec.709}
    - !<View> {name: Raw, colorspace: Utility - Raw}

active_displays: [ACES]
active_views: [ACES_Rec.709, Rec.709, NoGrade, Raw]

colorspaces:
  - !<ColorSpace>
    name: ACES - ACES2065-1
    family: ACES
    equalitygroup: ""
    bitdepth: 32f
    description: |
      The Academy Color Encoding System reference color space
    isdata: false
    allocation: lg2
    allocationvars: [-8, 5, 0.00390625]

  - !<ColorSpace>
    name: ACES - ACEScc
    family: ACES
    equalitygroup: ""
    bitdepth: 32f
    description: |
      The ACEScc color space

      ACES Transform ID : ACEScsc.ACEScc_to_ACES.a1.0.1
    isdata: false
    allocation: uniform
    allocationvars: [-0.3584, 1.468]
    to_reference: !<GroupTransform>
      children:
        - !<FileTransform> {src: ACEScc_to_linear.spi1d, interpolation: linear}
        - !<MatrixTransform> {matrix: [0.695452, 0.140679, 0.163869, 0, 0.0447946, 0.859671, 0.0955343, 0, -0.00552588, 0.00402521, 1.0015, 0, 0, 0, 0, 1]}

  - !<ColorSpace>
    name: ACES - ACESproxy
    family: ACES
    equalitygroup: ""
    bitdepth: 32f
    description: |
      The ACESproxy color space

      ACES Transform ID : ACEScsc.ACESproxy10i_to_ACES.a1.0.1
    isdata: false
    allocation: uniform
    allocationvars: [0, 1]
    to_reference: !<GroupTransform>
      children:
        - !<FileTransform> {src: ACESproxy_to_linear.spi1d, interpolation: linear}
        - !<MatrixTransform> {matrix: [0.695452, 0.140679, 0.163869, 0, 0.0447946, 0.859671, 0.0955343, 0, -0.00552588, 0.00402521, 1.0015, 0, 0, 0, 0, 1]}

  - !<ColorSpace>
    name: ACES - ACEScg
    family: ACES
    equalitygroup: ""
    bitdepth: 32f
    description: |
      The ACEScg color space

      ACES Transform ID : ACEScsc.ACEScg_to_ACES.a1.0.1
    isdata: false
    allocation: lg2
    allocationvars: [-8, 5, 0.00390625]
    to_reference: !<MatrixTransform> {matrix: [0.695452, 0.140679, 0.163869, 0, 0.0447946, 0.859671, 0.0955343, 0, -0.00552588, 0.00402521, 1.0015, 0, 0, 0, 0, 1]}

  - !<ColorSpace>
    name: ADX - ADX10
    family: ADX
    equalitygroup: ""
    bitdepth: 10ui
    description: |
      ADX10 color space - used for film scans

      ACES Transform ID : ACEScsc.ADX10_to_ACES.a1.0.1
    isdata: false
    allocation: uniform
    allocationvars: [0, 1]
    to_reference: !<GroupTransform>
      children:
        - !<MatrixTransform> {matrix: [2.046, 0, 0, 0, 0, 2.046, 0, 0, 0, 0, 2.046, 0, 0, 0, 0, 1], offset: [-0.19, -0.19, -0.19, 0]}
        - !<MatrixTransform> {matrix: [0.75573, 0.22197, 0.0223, 0, 0.05901, 0.96928, -0.02829, 0, 0.16134, 0.07406, 0.7646, 0, 0, 0, 0, 1]}
        - !<FileTransform> {src: ADX_CID_to_RLE.spi1d, interpolation: linear}
        - !<LogTransform> {base: 10, direction: inverse}
        - !<MatrixTransform> {matrix: [0.72286, 0.1263, 0.15084, 0, 0.11923, 0.76418, 0.11659, 0, 0.01427, 0.08213, 0.90359, 0, 0, 0, 0, 1]}

  - !<ColorSpace>
    name: ADX - ADX16
    family: ADX
    equalitygroup: ""
    bitdepth: 16ui
    description: |
      ADX16 color space - used for film scans

      ACES Transform ID : ACEScsc.ADX16_to_ACES.a1.0.1
    isdata: false
    allocation: uniform
    allocationvars: [0, 1]
    to_reference: !<GroupTransform>
      children:
        - !<MatrixTransform> {matrix: [8.19188, 0, 0, 0, 0, 8.19188, 0, 0, 0, 0, 8.19188, 0, 0, 0, 0, 1], offset: [-0.19, -0.19, -0.19, 0]}
        - !<MatrixTransform> {matrix: [0.75573, 0.22197, 0.0223, 0, 0.05901, 0.96928, -0.02829, 0, 0.16134, 0.07406, 0.7646, 0, 0, 0, 0, 1]}
        - !<FileTransform> {src: ADX_CID_to_RLE.spi1d, interpolation: linear}
        - !<LogTransform> {base: 10, direction: inverse}
        - !<MatrixTransform> {matrix: [0.72286, 0.1263, 0.15084, 0, 0.11923, 0.76418, 0.11659, 0, 0.01427, 0.08213, 0.90359, 0, 0, 0, 0, 1]}

  - !<ColorSpace>
    name: Input - ARRI - V3 LogC (EI160) - Wide Gamut
    family: Input/ARRI
    equalitygroup: ""
    bitdepth: 32f
    description: |
      V3 LogC (EI160) - Wide Gamut

      ACES Transform ID : IDT.ARRI.Alexa-v3-logC-EI160.a1.v1
    isdata: false
    allocation: uniform
    allocationvars: [0, 1]
    to_reference: !<GroupTransform>
      children:
        - !<FileTransform> {src: V3_LogC_160_to_linear.spi1d, interpolation: linear}
        - !<MatrixTransform> {matrix: [0.680206, 0.236137, 0.083658, 0, 0.085415, 1.01747, -0.102886, 0, 0.002057, -0.062563, 1.06051, 0, 0, 0, 0, 1]}

  - !<ColorSpace>
    name: Input - ARRI - V3 LogC (EI200) - Wide Gamut
    family: Input/ARRI
    equalitygroup: ""
    bitdepth: 32f
    description: |
      V3 LogC (EI200) - Wide Gamut

      ACES Transform ID : IDT.ARRI.Alexa-v3-logC-EI200.a1.v1
    isdata: false
    allocation: uniform
    allocationvars: [0, 1]
    to_reference: !<GroupTransform>
      children:
        - !<FileTransform> {src: V3_LogC_200_to_linear.spi1d, interpolation: linear}
        - !<MatrixTransform> {matrix: [0.680206, 0.236137, 0.083658, 0, 0.085415, 1.01747, -0.102886, 0, 0.002057, -0.062563, 1.06051, 0, 0, 0, 0, 1]}

  - !<ColorSpace>
    name: Input - ARRI - V3 LogC (EI250) - Wide Gamut
    family: Input/ARRI
    equalitygroup: ""
    bitdepth: 32f
    description: |
      V3 LogC (EI250) - Wide Gamut

      ACES Transform ID : IDT.ARRI.Alexa-v3-logC-EI250.a1.v1
    isdata: false
    allocation: uniform
    allocationvars: [0, 1]
    to_reference: !<GroupTransform>
      children:
        - !<FileTransform> {src: V3_LogC_250_to_linear.spi1d, interpolation: linear}
        - !<MatrixTransform> {matrix: [0.680206, 0.236137, 0.083658, 0, 0.085415, 1.01747, -0.102886, 0, 0.002057, -0.062563, 1.06051, 0, 0, 0, 0, 1]}

  - !<ColorSpace>
    name: Input - ARRI - V3 LogC (EI320) - Wide Gamut
    family: Input/ARRI
    equalitygroup: ""
    bitdepth: 32f
    description: |
      V3 LogC (EI320) - Wide Gamut

      ACES Transform ID : IDT.ARRI.Alexa-v3-logC-EI320.a1.v1
    isdata: false
    allocation: uniform
    allocationvars: [0, 1]
    to_reference: !<GroupTransform>
      children:
        - !<FileTransform> {src: V3_LogC_320_to_linear.spi1d, interpolation: linear}
        - !<MatrixTransform> {matrix: [0.680206, 0.236137, 0.083658, 0, 0.085415, 1.01747, -0.102886, 0, 0.002057, -0.062563, 1.06051, 0, 0, 0, 0, 1]}

  - !<ColorSpace>
    name: Input - ARRI - V3 LogC (EI400) - Wide Gamut
    family: Input/ARRI
    equalitygroup: ""
    bitdepth: 32f
    description: |
      V3 LogC (EI400) - Wide Gamut

      ACES Transform ID : IDT.ARRI.Alexa-v3-logC-EI400.a1.v1
    isdata: false
    allocation: uniform
    allocationvars: [0, 1]
    to_reference: !<GroupTransform>
      children:
        - !<FileTransform> {src: V3_LogC_400_to_linear.spi1d, interpolation: linear}
        - !<MatrixTransform> {matrix: [0.680206, 0.236137, 0.083658, 0, 0.085415, 1.01747, -0.102886, 0, 0.002057, -0.062563, 1.06051, 0, 0, 0, 0, 1]}

  - !<ColorSpace>
    name: Input - ARRI - V3 LogC (EI500) - Wide Gamut
    family: Input/ARRI
    equalitygroup: ""
    bitdepth: 32f
    description: |
      V3 LogC (EI500) - Wide Gamut

      ACES Transform ID : IDT.ARRI.Alexa-v3-logC-EI500.a1.v1
    isdata: false
    allocation: uniform
    allocationvars: [0, 1]
    to_reference: !<GroupTransform>
      children:
        - !<FileTransform> {src: V3_LogC_500_to_linear.spi1d, interpolation: linear}
        - !<MatrixTransform> {matrix: [0.680206, 0.236137, 0.083658, 0, 0.085415, 1.01747, -0.102886, 0, 0.002057, -0.062563, 1.06051, 0, 0, 0, 0, 1]}

  - !<ColorSpace>
    name: Input - ARRI - V3 LogC (EI640) - Wide Gamut
    family: Input/ARRI
    equalitygroup: ""
    bitdepth: 32f
    description: |
      V3 LogC (EI640) - Wide Gamut

      ACES Transform ID : IDT.ARRI.Alexa-v3-logC-EI640.a1.v1
    isdata: false
    allocation: uniform
    allocationvars: [0, 1]
    to_reference: !<GroupTransform>
      children:
        - !<FileTransform> {src: V3_LogC_640_to_linear.spi1d, interpolation: linear}
        - !<MatrixTransform> {matrix: [0.680206, 0.236137, 0.083658, 0, 0.085415, 1.01747, -0.102886, 0, 0.002057, -0.062563, 1.06051, 0, 0, 0, 0, 1]}

  - !<ColorSpace>
    name: Input - ARRI - V3 LogC (EI800) - Wide Gamut
    family: Input/ARRI
    equalitygroup: ""
    bitdepth: 32f
    description: |
      V3 LogC (EI800) - Wide Gamut

      ACES Transform ID : IDT.ARRI.Alexa-v3-logC-EI800.a1.v1
    isdata: false
    allocation: uniform
    allocationvars: [0, 1]
    to_reference: !<GroupTransform>
      children:
        - !<FileTransform> {src: V3_LogC_800_to_linear.spi1d, interpolation: linear}
        - !<MatrixTransform> {matrix: [0.680206, 0.236137, 0.083658, 0, 0.085415, 1.01747, -0.102886, 0, 0.002057, -0.062563, 1.06051, 0, 0, 0, 0, 1]}

  - !<ColorSpace>
    name: Input - ARRI - V3 LogC (EI1000) - Wide Gamut
    family: Input/ARRI
    equalitygroup: ""
    bitdepth: 32f
    description: |
      V3 LogC (EI1000) - Wide Gamut

      ACES Transform ID : IDT.ARRI.Alexa-v3-logC-EI1000.a1.v1
    isdata: false
    allocation: uniform
    allocationvars: [0, 1]
    to_reference: !<GroupTransform>
      children:
        - !<FileTransform> {src: V3_LogC_1000_to_linear.spi1d, interpolation: linear}
        - !<MatrixTransform> {matrix: [0.680206, 0.236137, 0.083658, 0, 0.085415, 1.01747, -0.102886, 0, 0.002057, -0.062563, 1.06051, 0, 0, 0, 0, 1]}

  - !<ColorSpace>
    name: Input - ARRI - V3 LogC (EI1280) - Wide Gamut
    family: Input/ARRI
    equalitygroup: ""
    bitdepth: 32f
    description: |
      V3 LogC (EI1280) - Wide Gamut

      ACES Transform ID : IDT.ARRI.Alexa-v3-logC-EI1280.a1.v1
    isdata: false
    allocation: uniform
    allocationvars: [0, 1]
    to_reference: !<GroupTransform>
      children:
        - !<FileTransform> {src: V3_LogC_1280_to_linear.spi1d, interpolation: linear}
        - !<MatrixTransform> {matrix: [0.680206, 0.236137, 0.083658, 0, 0.085415, 1.01747, -0.102886, 0, 0.002057, -0.062563, 1.06051, 0, 0, 0, 0, 1]}

  - !<ColorSpace>
    name: Input - ARRI - V3 LogC (EI1600) - Wide Gamut
    family: Input/ARRI
    equalitygroup: ""
    bitdepth: 32f
    description: |
      V3 LogC (EI1600) - Wide Gamut

      ACES Transform ID : IDT.ARRI.Alexa-v3-logC-EI1600.a1.v1
    isdata: false
    allocation: uniform
    allocationvars: [0, 1]
    to_reference: !<GroupTransform>
      children:
        - !<FileTransform> {src: V3_LogC_1600_to_linear.spi1d, interpolation: linear}
        - !<MatrixTransform> {matrix: [0.680206, 0.236137, 0.083658, 0, 0.085415, 1.01747, -0.102886, 0, 0.002057, -0.062563, 1.06051, 0, 0, 0, 0, 1]}

  - !<ColorSpace>
    name: Input - ARRI - V3 LogC (EI2000) - Wide Gamut
    family: Input/ARRI
    equalitygroup: ""
    bitdepth: 32f
    description: |
      V3 LogC (EI2000) - Wide Gamut

      ACES Transform ID : IDT.ARRI.Alexa-v3-logC-EI2000.a1.v1
    isdata: false
    allocation: uniform
    allocationvars: [0, 1]
    to_reference: !<GroupTransform>
      children:
        - !<FileTransform> {src: V3_LogC_2000_to_linear.spi1d, interpolation: linear}
        - !<MatrixTransform> {matrix: [0.680206, 0.236137, 0.083658, 0, 0.085415, 1.01747, -0.102886, 0, 0.002057, -0.062563, 1.06051, 0, 0, 0, 0, 1]}

  - !<ColorSpace>
    name: Input - ARRI - V3 LogC (EI2560) - Wide Gamut
    family: Input/ARRI
    equalitygroup: ""
    bitdepth: 32f
    description: |
      V3 LogC (EI2560) - Wide Gamut

      ACES Transform ID : IDT.ARRI.Alexa-v3-logC-EI2560.a1.v1
    isdata: false
    allocation: uniform
    allocationvars: [0, 1]
    to_reference: !<GroupTransform>
      children:
        - !<FileTransform> {src: V3_LogC_2560_to_linear.spi1d, interpolation: linear}
        - !<MatrixTransform> {matrix: [0.680206, 0.236137, 0.083658, 0, 0.085415, 1.01747, -0.102886, 0, 0.002057, -0.062563, 1.06051, 0, 0, 0, 0, 1]}

  - !<ColorSpace>
    name: Input - ARRI - V3 LogC (EI3200) - Wide Gamut
    family: Input/ARRI
    equalitygroup: ""
    bitdepth: 32f
    description: |
      V3 LogC (EI3200) - Wide Gamut

      ACES Transform ID : IDT.ARRI.Alexa-v3-logC-EI3200.a1.v1
    isdata: false
    allocation: uniform
    allocationvars: [0, 1]
    to_reference: !<GroupTransform>
      children:
        - !<FileTransform> {src: V3_LogC_3200_to_linear.spi1d, interpolation: linear}
        - !<MatrixTransform> {matrix: [0.680206, 0.236137, 0.083658, 0, 0.085415, 1.01747, -0.102886, 0, 0.002057, -0.062563, 1.06051, 0, 0, 0, 0, 1]}

  - !<ColorSpace>
    name: Input - ARRI - Curve - V3 LogC (EI800)
    family: Input/ARRI
    equalitygroup: ""
    bitdepth: 32f
    description: |
      Curve - V3 LogC (EI800)
    isdata: false
    allocation: uniform
    allocationvars: [0, 1]
    to_reference: !<FileTransform> {src: V3_LogC_800_to_linear.spi1d, interpolation: linear}

  - !<ColorSpace>
    name: Input - ARRI - Linear - ARRI Wide Gamut
    family: Input/ARRI
    equalitygroup: ""
    bitdepth: 32f
    description: |
      Linear - ARRI Wide Gamut
    isdata: false
    allocation: lg2
    allocationvars: [-8, 5, 0.00390625]
    to_reference: !<MatrixTransform> {matrix: [0.680206, 0.236137, 0.083658, 0, 0.085415, 1.01747, -0.102886, 0, 0.002057, -0.062563, 1.06051, 0, 0, 0, 0, 1]}

  - !<ColorSpace>
    name: Input - Canon - Canon-Log - Rec. 709 Daylight
    family: Input/Canon
    equalitygroup: ""
    bitdepth: 32f
    description: |
      Canon-Log - Rec. 709 Daylight
    isdata: false
    allocation: uniform
    allocationvars: [0, 1]
    to_reference: !<GroupTransform>
      children:
        - !<FileTransform> {src: Canon-Log_to_linear.spi1d, interpolation: linear}
        - !<MatrixTransform> {matrix: [0.561539, 0.40206, 0.0364009, 0, 0.0927396, 0.924121, -0.0168608, 0, 0.084813, 0.00637383, 0.908813, 0, 0, 0, 0, 1]}

  - !<ColorSpace>
    name: Input - Canon - Canon-Log - Rec. 709 Tungsten
    family: Input/Canon
    equalitygroup: ""
    bitdepth: 32f
    description: |
      Canon-Log - Rec. 709 Tungsten
    isdata: false
    allocation: uniform
    allocationvars: [0, 1]
    to_reference: !<GroupTransform>
      children:
        - !<FileTransform> {src: Canon-Log_to_linear.spi1d, interpolation: linear}
        - !<MatrixTransform> {matrix: [0.566996, 0.365079, 0.0679242, 0, 0.070901, 0.880331, 0.0487679, 0, 0.0730135, -0.0665409, 0.993527, 0, 0, 0, 0, 1]}

  - !<ColorSpace>
    name: Input - Canon - Canon-Log - DCI-P3 Daylight
    family: Input/Canon
    equalitygroup: ""
    bitdepth: 32f
    description: |
      Canon-Log - DCI-P3 Daylight
    isdata: false
    allocation: uniform
    allocationvars: [0, 1]
    to_reference: !<GroupTransform>
      children:
        - !<FileTransform> {src: Canon-Log_to_linear.spi1d, interpolation: linear}
        - !<MatrixTransform> {matrix: [0.607161, 0.299507, 0.0933321, 0, 0.00496812, 1.05098, -0.0559503, 0, -0.00783994, 0.000809127, 1.00703, 0, 0, 0, 0, 1]}

  - !<ColorSpace>
    name: Input - Canon - Canon-Log - DCI-P3 Tungsten
    family: Input/Canon
    equalitygroup: ""
    bitdepth: 32f
    description: |
      Canon-Log - DCI-P3 Tungsten
    isdata: false
    allocation: uniform
    allocationvars: [0, 1]
    to_reference: !<GroupTransform>
      children:
        - !<FileTransform> {src: Canon-Log_to_linear.spi1d, interpolation: linear}
        - !<MatrixTransform> {matrix: [0.650279, 0.25388, 0.0958407, 0, -0.026138, 1.0179, 0.00823746, 0, 0.00775756, -0.0630817, 1.05532, 0, 0, 0, 0, 1]}

  - !<ColorSpace>
    name: Input - Canon - Canon-Log - Cinema Gamut Daylight
    family: Input/Canon
    equalitygroup: ""
    bitdepth: 32f
    description: |
      Canon-Log - Cinema Gamut Daylight
    isdata: false
    allocation: uniform
    allocationvars: [0, 1]
    to_reference: !<GroupTransform>
      children:
        - !<FileTransform> {src: Canon-Log_to_linear.spi1d, interpolation: linear}
        - !<MatrixTransform> {matrix: [0.763064, 0.149021, 0.0879144, 0, 0.00365746, 1.10696, -0.110618, 0, -0.00940779, -0.218383, 1.22779, 0, 0, 0, 0, 1]}

  - !<ColorSpace>
    name: Input - Canon - Canon-Log - Cinema Gamut Tungsten
    family: Input/Canon
    equalitygroup: ""
    bitdepth: 32f
    description: |
      Canon-Log - Cinema Gamut Tungsten
    isdata: false
    allocation: uniform
    allocationvars: [0, 1]
    to_reference: !<GroupTransform>
      children:
        - !<FileTransform> {src: Canon-Log_to_linear.spi1d, interpolation: linear}
        - !<MatrixTransform> {matrix: [0.817416, 0.0907557, 0.091828, 0, -0.0353614, 1.06569, -0.0303292, 0, 0.0103904, -0.299271, 1.28888, 0, 0, 0, 0, 1]}

  - !<ColorSpace>
    name: Input - Canon - Curve - Canon-Log
    family: Input/Canon
    equalitygroup: ""
    bitdepth: 32f
    description: |
      Curve - Canon-Log
    isdata: false
    allocation: uniform
    allocationvars: [0, 1]
    to_reference: !<FileTransform> {src: Canon-Log_to_linear.spi1d, interpolation: linear}

  - !<ColorSpace>
    name: Input - Canon - Linear - Canon Rec. 709 Daylight
    family: Input/Canon
    equalitygroup: ""
    bitdepth: 32f
    description: |
      Linear - Canon Rec. 709 Daylight
    isdata: false
    allocation: lg2
    allocationvars: [-8, 5, 0.00390625]
    to_reference: !<MatrixTransform> {matrix: [0.561539, 0.40206, 0.0364009, 0, 0.0927396, 0.924121, -0.0168608, 0, 0.084813, 0.00637383, 0.908813, 0, 0, 0, 0, 1]}

  - !<ColorSpace>
    name: Input - Canon - Linear - Canon Rec. 709 Tungsten
    family: Input/Canon
    equalitygroup: ""
    bitdepth: 32f
    description: |
      Linear - Canon Rec. 709 Tungsten
    isdata: false
    allocation: lg2
    allocationvars: [-8, 5, 0.00390625]
    to_reference: !<MatrixTransform> {matrix: [0.566996, 0.365079, 0.0679242, 0, 0.070901, 0.880331, 0.0487679, 0, 0.0730135, -0.0665409, 0.993527, 0, 0, 0, 0, 1]}

  - !<ColorSpace>
    name: Input - Canon - Linear - Canon DCI-P3 Daylight
    family: Input/Canon
    equalitygroup: ""
    bitdepth: 32f
    description: |
      Linear - Canon DCI-P3 Daylight
    isdata: false
    allocation: lg2
    allocationvars: [-8, 5, 0.00390625]
    to_reference: !<MatrixTransform> {matrix: [0.607161, 0.299507, 0.0933321, 0, 0.00496812, 1.05098, -0.0559503, 0, -0.00783994, 0.000809127, 1.00703, 0, 0, 0, 0, 1]}

  - !<ColorSpace>
    name: Input - Canon - Linear - Canon DCI-P3 Tungsten
    family: Input/Canon
    equalitygroup: ""
    bitdepth: 32f
    description: |
      Linear - Canon DCI-P3 Tungsten
    isdata: false
    allocation: lg2
    allocationvars: [-8, 5, 0.00390625]
    to_reference: !<MatrixTransform> {matrix: [0.650279, 0.25388, 0.0958407, 0, -0.026138, 1.0179, 0.00823746, 0, 0.00775756, -0.0630817, 1.05532, 0, 0, 0, 0, 1]}

  - !<ColorSpace>
    name: Input - Canon - Linear - Canon Cinema Gamut Daylight
    family: Input/Canon
    equalitygroup: ""
    bitdepth: 32f
    description: |
      Linear - Canon Cinema Gamut Daylight
    isdata: false
    allocation: lg2
    allocationvars: [-8, 5, 0.00390625]
    to_reference: !<MatrixTransform> {matrix: [0.763064, 0.149021, 0.0879144, 0, 0.00365746, 1.10696, -0.110618, 0, -0.00940779, -0.218383, 1.22779, 0, 0, 0, 0, 1]}

  - !<ColorSpace>
    name: Input - Canon - Linear - Canon Cinema Gamut Tungsten
    family: Input/Canon
    equalitygroup: ""
    bitdepth: 32f
    description: |
      Linear - Canon Cinema Gamut Tungsten
    isdata: false
    allocation: lg2
    allocationvars: [-8, 5, 0.00390625]
    to_reference: !<MatrixTransform> {matrix: [0.817416, 0.0907557, 0.091828, 0, -0.0353614, 1.06569, -0.0303292, 0, 0.0103904, -0.299271, 1.28888, 0, 0, 0, 0, 1]}

  - !<ColorSpace>
    name: Input - GoPro - Protune Flat - Protune Native - Experimental
    family: Input/GoPro
    equalitygroup: ""
    bitdepth: 32f
    description: |
      Protune Flat - Protune Native - Experimental
    isdata: false
    allocation: uniform
    allocationvars: [0, 1]
    to_reference: !<GroupTransform>
      children:
        - !<FileTransform> {src: Protune_Flat_to_linear.spi1d, interpolation: linear}
        - !<MatrixTransform> {matrix: [0.533448, 0.324139, 0.142412, 0, -0.0507299, 1.07572, -0.0249904, 0, 0.0714197, -0.290522, 1.2191, 0, 0, 0, 0, 1]}

  - !<ColorSpace>
    name: Input - GoPro - Curve - Protune Flat
    family: Input/GoPro
    equalitygroup: ""
    bitdepth: 32f
    description: |
      Curve - Protune Flat
    isdata: false
    allocation: uniform
    allocationvars: [0, 1]
    to_reference: !<FileTransform> {src: Protune_Flat_to_linear.spi1d, interpolation: linear}

  - !<ColorSpace>
    name: Input - GoPro - Linear - Protune Native - Experimental
    family: Input/GoPro
    equalitygroup: ""
    bitdepth: 32f
    description: |
      Linear - Protune Native - Experimental
    isdata: false
    allocation: lg2
    allocationvars: [-8, 5, 0.00390625]
    to_reference: !<MatrixTransform> {matrix: [0.533448, 0.324139, 0.142412, 0, -0.0507299, 1.07572, -0.0249904, 0, 0.0714197, -0.290522, 1.2191, 0, 0, 0, 0, 1]}

  - !<ColorSpace>
    name: Input - Panasonic - V-Log - V-Gamut
    family: Input/Panasonic
    equalitygroup: ""
    bitdepth: 32f
    description: |
      V-Log - V-Gamut
    isdata: false
    allocation: uniform
    allocationvars: [0, 1]
    to_reference: !<GroupTransform>
      children:
        - !<FileTransform> {src: V-Log_to_linear.spi1d, interpolation: linear}
        - !<MatrixTransform> {matrix: [0.724383, 0.166748, 0.108497, 0, 0.021354, 0.985138, -0.00631909, 0, -0.00923428, -0.00104295, 1.01027, 0, 0, 0, 0, 1]}

  - !<ColorSpace>
    name: Input - Panasonic - Curve - V-Log
    family: Input/Panasonic
    equalitygroup: ""
    bitdepth: 32f
    description: |
      Curve - V-Log
    isdata: false
    allocation: uniform
    allocationvars: [0, 1]
    to_reference: !<FileTransform> {src: V-Log_to_linear.spi1d, interpolation: linear}

  - !<ColorSpace>
    name: Input - Panasonic - Linear - V-Gamut
    family: Input/Panasonic
    equalitygroup: ""
    bitdepth: 32f
    description: |
      Linear - V-Gamut
    isdata: false
    allocation: lg2
    allocationvars: [-8, 5, 0.00390625]
    to_reference: !<MatrixTransform> {matrix: [0.724383, 0.166748, 0.108497, 0, 0.021354, 0.985138, -0.00631909, 0, -0.00923428, -0.00104295, 1.01027, 0, 0, 0, 0, 1]}

  - !<ColorSpace>
    name: Input - RED - REDlogFilm - DRAGONcolor
    family: Input/RED
    equalitygroup: ""
    bitdepth: 32f
    description: |
      REDlogFilm - DRAGONcolor
    isdata: false
    allocation: uniform
    allocationvars: [0, 1]
    to_reference: !<GroupTransform>
      children:
        - !<FileTransform> {src: CineonLog_to_linear.spi1d, interpolation: linear}
        - !<MatrixTransform> {matrix: [0.532279, 0.376648, 0.091073, 0, 0.046344, 0.974513, -0.02086, 0, -0.053976, -0.00032, 1.05427, 0, 0, 0, 0, 1]}

  - !<ColorSpace>
    name: Input - RED - REDlogFilm - DRAGONcolor2
    family: Input/RED
    equalitygroup: ""
    bitdepth: 32f
    description: |
      REDlogFilm - DRAGONcolor2
    isdata: false
    allocation: uniform
    allocationvars: [0, 1]
    to_reference: !<GroupTransform>
      children:
        - !<FileTransform> {src: CineonLog_to_linear.spi1d, interpolation: linear}
        - !<MatrixTransform> {matrix: [0.468452, 0.331484, 0.200064, 0, 0.040787, 0.857658, 0.101553, 0, -0.047504, -0.000282, 1.04776, 0, 0, 0, 0, 1]}

  - !<ColorSpace>
    name: Input - RED - REDlogFilm - REDcolor
    family: Input/RED
    equalitygroup: ""
    bitdepth: 32f
    description: |
