nuke/plugins/OCIOConfigs/configs/nuke-default/luts/hdr2084.spi1d
Version 1
From -0.125 1.125
Length 4101
Components 1
{
        -0.00593890026282
        -0.00589859491258
        -0.00585849258719
        -0.00581859253986
        -0.00577889402599
        -0.00573939630317
        -0.00570009863119
        -0.005661000272
        -0.00562210048973
        -0.00558339855068
        -0.0055448937233
        -0.00550658527821
        -0.00546847248816
        -0.00543055462806
        -0.00539283097495
        -0.00535530080799
        -0.0053179634085
        -0.00528081805989
        -0.00524386404769
        -0.00520710065954
        -0.00517052718519
        -0.00513414291648
        -0.00509794714734
        -0.0050619391738
        -0.00502611829396
        -0.00499048380799
        -0.00495503501813
        -0.0049197712287
        -0.00488469174607
        -0.00484979587865
        -0.00481508293691
        -0.00478055223335
        -0.00474620308253
        -0.00471203480102
        -0.00467804670742
        -0.00464423812235
        -0.00461060836844
        -0.00457715677034
        -0.00454388265469
        -0.00451078535013
        -0.00447786418731
        -0.00444511849884
        -0.00441254761934
        -0.00438015088538
        -0.00434792763552
        -0.00431587721028
        -0.00428399895213
        -0.00425229220551
        -0.00422075631681
        -0.00418939063435
        -0.0041581945084
        -0.00412716729117
        -0.00409630833678
        -0.00406561700129
        -0.00403509264267
        -0.00400473462082
        -0.00397454229752
        -0.00394451503647
        -0.00391465220327
        -0.00388495316541
        -0.00385541729226
        -0.00382604395507
        -0.00379683252699
        -0.00376778238303
        -0.00373889290005
        -0.00371016345679
        -0.00368159343385
        -0.00365318221367
        -0.00362492918054
        -0.00359683372061
        -0.00356889522184
        -0.00354111307403
        -0.00351348666882
        -0.00348601539965
        -0.00345869866181
        -0.00343153585237
        -0.00340452637022
        -0.00337766961605
        -0.00335096499235
        -0.00332441190341
        -0.0032980097553
        -0.00327175795586
        -0.00324565591473
        -0.00321970304331
        -0.00319389875478
        -0.00316824246407
        -0.00314273358788
        -0.00311737154466
        -0.0030921557546
        -0.00306708563965
        -0.00304216062349
        -0.00301738013155
        -0.00299274359096
        -0.00296825043061
        -0.00294390008108
        -0.0029196919747
        -0.00289562554548
        -0.00287170022916
        -0.00284791546316
        -0.00282427068662
        -0.00280076534036
        -0.0027773988669
        -0.00275417071043
        -0.00273108031682
        -0.00270812713363
        -0.00268531061007
        -0.00266263019704
        -0.00264008534707
        -0.00261767551438
        -0.00259540015482
        -0.00257325872589
        -0.00255125068674
        -0.00252937549815
        -0.00250763262255
        -0.00248602152399
        -0.00246454166813
        -0.00244319252228
        -0.00242197355534
        -0.00240088423785
        -0.00237992404193
        -0.00235909244131
        -0.00233838891134
        -0.00231781292894
        -0.00229736397262
        -0.0022770415225
        -0.00225684506026
        -0.00223677406916
        -0.00221682803404
        -0.00219700644131
        -0.00217730877893
        -0.00215773453644
        -0.00213828320491
        -0.00211895427699
        -0.00209974724687
        -0.00208066161026
        -0.00206169686444
        -0.00204285250821
        -0.00202412804189
        -0.00200552296736
        -0.00198703678798
        -0.00196866900866
        -0.00195041913582
        -0.00193228667736
        -0.00191427114273
        -0.00189637204285
        -0.00187858889016
        -0.00186092119856
        -0.00184336848347
        -0.0018259302618
        -0.0018086060519
        -0.00179139537365
        -0.00177429774836
        -0.00175731269883
        -0.00174043974933
        -0.00172367842558
        -0.00170702825475
        -0.00169048876548
        -0.00167405948786
        -0.00165773995341
        -0.0016415296951
        -0.00162542824734
        -0.00160943514596
        -0.00159354992825
        -0.00157777213289
        -0.0015621013
        -0.00154653697111
        -0.00153107868918
        -0.00151572599857
        -0.00150047844504
        -0.00148533557577
        -0.00147029693931
        -0.00145536208563
        -0.00144053056609
        -0.00142580193343
        -0.00141117574177
        -0.00139665154662
        -0.00138222890486
        -0.00136790737474
        -0.00135368651588
        -0.00133956588927
        -0.00132554505727
        -0.00131162358357
        -0.00129780103323
        -0.00128407697267
        -0.00127045096965
        -0.00125692259325
        -0.00124349141393
        -0.00123015700345
        -0.00121691893492
        -0.00120377678278
        -0.00119073012279
        -0.00117777853202
        -0.00116492158888
        -0.00115215887309
        -0.00113948996565
        -0.00112691444891
        -0.00111443190651
        -0.00110204192336
        -0.00108974408571
        -0.00107753798108
        -0.00106542319829
        -0.00105339932743
        -0.00104146595989
        -0.00102962268832
        -0.00101786910668
        -0.00100620481017
        -0.000994629395258
        -0.000983142459706
        -0.000971743602517
        -0.000960432423958
        -0.00094920852555
        -0.000938071510071
        -0.000927020981543
        -0.000916056545237
        -0.000905177807665
        -0.000894384376579
        -0.000883675860966
        -0.000873051871045
        -0.000862512018268
        -0.000852055915309
        -0.000841683176067
        -0.000831393415661
        -0.000821186250426
        -0.000811061297911
        -0.000801018176875
        -0.000791056507285
        -0.00078117591031
        -0.000771376008322
        -0.000761656424891
        -0.00075201678478
        -0.000742456713947
        -0.000732975839534
        -0.000723573789873
        -0.000714250194478
        -0.00070500468404
        -0.000695836890431
        -0.000686746446692
        -0.00067773298704
        -0.000668796146856
        -0.000659935562687
        -0.000651150872245
        -0.000642441714397
        -0.00063380772917
        -0.000625248557742
        -0.000616763842444
        -0.000608353226755
        -0.000600016355297
        -0.000591752873838
        -0.000583562429283
        -0.000575444669677
        -0.000567399244196
        -0.000559425803151
        -0.000551523997981
        -0.000543693481252
        -0.000535933906654
        -0.000528244928998
        -0.000520626204215
        -0.000513077389352
        -0.00050559814257
        -0.000498188123142
        -0.00049084699145
        -0.000483574408983
        -0.000476370038334
        -0.000469233543199
        -0.000462164588372
        -0.000455162839748
        -0.000448227964314
        -0.000441359630152
        -0.000434557506435
        -0.000427821263425
        -0.000421150572469
        -0.000414545106002
        -0.000408004537539
        -0.000401528541677
        -0.000395116794094
        -0.00038876897154
        -0.000382484751846
        -0.000376263813913
        -0.000370105837715
        -0.000364010504294
        -0.000357977495765
        -0.000352006495305
        -0.000346097187159
        -0.000340249256635
        -0.000334462390105
        -0.000328736275
        -0.000323070599813
        -0.000317465054093
        -0.00031191932845
        -0.000306433114548
        -0.000301006105107
        -0.000295637993902
        -0.000290328475762
        -0.000285077246568
        -0.000279884003255
        -0.000274748443807
        -0.000269670267262
        -0.000264649173709
        -0.000259684864285
        -0.000254777041179
        -0.000249925407632
        -0.000245129667934
        -0.000240389527424
        -0.000235704692495
        -0.000231074870589
        -0.000226499770203
        -0.000221979100883
        -0.000217512573232
        -0.000213099898906
        -0.000208740790615
        -0.000204434962131
        -0.00020018212828
        -0.000195982004953
        -0.000191834309099
        -0.000187738758735
        -0.000183695072943
        -0.000179702971878
        -0.000175762176764
        -0.000171872409903
        -0.000168033394675
        -0.000164244855543
        -0.000160506518058
        -0.000156818108862
        -0.000153179355692
        -0.000149589987387
        -0.000146049733891
        -0.000142558326263
        -0.000139115496676
        -0.000135720978433
        -0.000132374505967
        -0.000129075814849
        -0.000125824641803
        -0.000122620724705
        -0.000119463802601
        -0.000116353615712
        -0.000113289905446
        -0.000110272414409
        -0.000107300886419
        -0.000104375066519
        -0.000101494700986
        -9.86595373527e-05
        -9.58693244202e-05
        -9.31238122741e-05
        -9.04227523046e-05
        -8.77658972246e-05
        -8.51530010911e-05
        -8.25838193271e-05
        -8.00581087455e-05
        -7.75756275743e-05
        -7.51361354838e-05
        -7.27393936161e-05
        -7.03851646156e-05
        -6.80732126633e-05
        -6.58033035121e-05
        -6.35752045257e-05
        -6.138868472e-05
        -5.92435148078e-05
        -5.71394672467e-05
        -5.5076316291e-05
        -5.30538380476e-05
        -5.1071810536e-05
        -4.91300137539e-05
        -4.72282297472e-05
        -4.5366242687e-05
        -4.3543838952e-05
        -4.17608072189e-05
        -4.00169385601e-05
        -3.83120265505e-05
        -3.66458673839e-05
        -3.50182600003e-05
        -3.34290062253e-05
        -3.18779109225e-05
        -3.03647821622e-05
        -2.88894314054e-05
        -2.74516737085e-05
        -2.6051327949e-05
        -2.46882170757e-05
        -2.33621683869e-05
        -2.20730138409e-05
        -2.08205904026e-05
        -1.96047404325e-05
        -1.84253121243e-05
        -1.72821599991e-05
        -1.61751454653e-05
        -1.51041374558e-05
        -1.40690131564e-05
        -1.30696588422e-05
        -1.21059708421e-05
        -1.11778566588e-05
        -1.02852362759e-05
        -9.42804369223e-06
        -8.6062287388e-06
        -7.81975924308e-06
        -7.0686236321e-06
        -6.3528340915e-06
        -5.67243043995e-06
        -5.02748493706e-06
        -4.41810832925e-06
        -3.8444575675e-06
        -3.30674583097e-06
        -2.80525580812e-06
        -2.34035771181e-06
        -1.9125344066e-06
        -1.52241765976e-06
        -1.17084266907e-06
        -8.58934548656e-07
        -5.88255423434e-07
        -3.61080007281e-07
        -1.8099224027e-07
        -5.45416967841e-08
        0.0
        5.45416967841e-08
        1.8099224027e-07
        3.61080007281e-07
        5.88255423434e-07
        8.58934548656e-07
        1.17084266907e-06
        1.52241765976e-06
        1.9125344066e-06
        2.34035771181e-06
        2.80525580812e-06
        3.30674583097e-06
        3.8444575675e-06
        4.41810832925e-06
        5.02748493706e-06
        5.67243043995e-06
        6.3528340915e-06
        7.0686236321e-06
        7.81975924308e-06
        8.6062287388e-06
        9.42804369223e-06
        1.02852362759e-05
        1.11778566588e-05
        1.21059708421e-05
        1.30696588422e-05
        1.40690131564e-05
        1.51041374558e-05
        1.61751454653e-05
        1.72821599991e-05
        1.84253121243e-05
        1.96047404325e-05
        2.08205904026e-05
        2.20730138409e-05
        2.33621683869e-05
        2.46882170757e-05
        2.6051327949e-05
        2.74516737085e-05
        2.88894314054e-05
        3.03647821622e-05
        3.18779109225e-05
        3.34290062253e-05
        3.50182600003e-05
        3.66458673839e-05
        3.83120265505e-05
        4.00169385601e-05
        4.17608072189e-05
        4.3543838952e-05
        4.5366242687e-05
        4.72282297472e-05
        4.91300137539e-05
        5.1071810536e-05
        5.30538380476e-05
        5.5076316291e-05
        5.71394672467e-05
        5.92435148078e-05
        6.138868472e-05
        6.35752045257e-05
        6.58033035121e-05
        6.80732126633e-05
        7.03851646156e-05
        7.27393936161e-05
        7.51361354838e-05
        7.75756275743e-05
        8.00581087455e-05
        8.25838193271e-05
        8.51530010911e-05
        8.77658972246e-05
        9.04227523046e-05
        9.31238122741e-05
        9.58693244202e-05
        9.86595373527e-05
        0.000101494700986
        0.000104375066519
        0.000107300886419
        0.000110272414409
        0.000113289905446
        0.000116353615712
        0.000119463802601
        0.000122620724705
        0.000125824641803
        0.000129075814849
        0.000132374505967
        0.000135720978433
        0.000139115496676
        0.000142558326263
        0.000146049733891
        0.000149589987387
        0.000153179355692
        0.000156818108862
        0.000160506518058
        0.000164244855543
        0.000168033394675
        0.000171872409903
        0.000175762176764
        0.000179702971878
        0.000183695072943
        0.000187738758735
        0.000191834309099
        0.000195982004953
        0.00020018212828
        0.000204434962131
        0.000208740790615
        0.000213099898906
        0.000217512573232
        0.000221979100883
        0.000226499770203
        0.000231074870589
        0.000235704692495
        0.000240389527424
        0.000245129667934
        0.000249925407632
        0.000254777041179
        0.000259684864285
        0.000264649173709
        0.000269670267262
        0.000274748443807
        0.000279884003255
        0.000285077246568
        0.000290328475762
        0.000295637993902
        0.000301006105107
        0.000306433114548
        0.00031191932845
        0.000317465054093
        0.000323070599813
        0.000328736275
        0.000334462390105
        0.000340249256635
        0.000346097187159
        0.000352006495305
        0.000357977495765
        0.000364010504294
        0.000370105837715
        0.000376263813913
        0.000382484751846
        0.00038876897154
        0.000395116794094
        0.000401528541677
        0.000408004537539
        0.000414545106002
        0.000421150572469
        0.000427821263425
        0.000434557506435
        0.000441359630152
        0.000448227964314
        0.000455162839748
        0.000462164588372
        0.000469233543199
        0.000476370038334
        0.000483574408983
        0.00049084699145
        0.000498188123142
        0.00050559814257
        0.000513077389352
        0.000520626204215
        0.000528244928998
        0.000535933906654
        0.000543693481252
        0.000551523997981
        0.000559425803151
        0.000567399244196
        0.000575444669677
        0.000583562429283
        0.000591752873838
        0.000600016355297
        0.000608353226755
        0.000616763842444
        0.000625248557742
        0.00063380772917
        0.000642441714397
        0.000651150872245
        0.000659935562687
        0.000668796146856
        0.00067773298704
        0.000686746446692
        0.000695836890431
        0.00070500468404
        0.000714250194478
        0.000723573789873
        0.000732975839534
        0.000742456713947
        0.00075201678478
        0.000761656424891
        0.000771376008322
        0.00078117591031
        0.000791056507285
        0.000801018176875
        0.000811061297911
        0.000821186250426
        0.000831393415661
        0.000841683176067
        0.000852055915309
        0.000862512018268
        0.000873051871045
        0.000883675860966
        0.000894384376579
        0.000905177807665
        0.000916056545237
        0.000927020981543
        0.000938071510071
        0.00094920852555
        0.000960432423958
        0.000971743602517
        0.000983142459706
        0.000994629395258
        0.00100620481017
        0.00101786910668
        0.00102962268832
        0.00104146595989
        0.00105339932743
        0.00106542319829
        0.00107753798108
        0.00108974408571
        0.00110204192336
        0.00111443190651
        0.00112691444891
        0.00113948996565
        0.00115215887309
        0.00116492158888
        0.00117777853202
        0.00119073012279
        0.00120377678278
        0.00121691893492
        0.00123015700345
        0.00124349141393
        0.00125692259325
        0.00127045096965
        0.00128407697267
        0.00129780103323
        0.00131162358357
        0.00132554505727
        0.00133956588927
        0.00135368651588
        0.00136790737474
        0.00138222890486
        0.00139665154662
        0.00141117574177
        0.00142580193343
        0.00144053056609
        0.00145536208563
        0.00147029693931
        0.00148533557577
        0.00150047844504
        0.00151572599857
        0.00153107868918
        0.00154653697111
        0.0015621013
        0.00157777213289
        0.00159354992825
        0.00160943514596
        0.00162542824734
        0.0016415296951
        0.00165773995341
        0.00167405948786
        0.00169048876548
        0.00170702825475
        0.00172367842558
        0.00174043974933
        0.00175731269883
        0.00177429774836
        0.00179139537365
        0.0018086060519
        0.0018259302618
        0.00184336848347
        0.00186092119856
        0.00187858889016
        0.00189637204285
        0.00191427114273
        0.00193228667736
        0.00195041913582
        0.00196866900866
        0.00198703678798
        0.00200552296736
        0.00202412804189
        0.00204285250821
        0.00206169686444
        0.00208066161026
        0.00209974724687
        0.00211895427699
        0.00213828320491
        0.00215773453644
        0.00217730877893
        0.00219700644131
        0.00221682803404
        0.00223677406916
        0.00225684506026
        0.0022770415225
        0.00229736397262
        0.00231781292894
        0.00233838891134
        0.00235909244131
        0.00237992404193
        0.00240088423785
        0.00242197355534
        0.00244319252228
        0.00246454166813
        0.00248602152399
        0.00250763262255
        0.00252937549815
        0.00255125068674
        0.00257325872589
        0.00259540015482
        0.00261767551438
        0.00264008534707
        0.00266263019704
        0.00268531061007
        0.00270812713363
        0.00273108031682
        0.00275417071043
        0.0027773988669
        0.00280076534036
        0.00282427068662
        0.00284791546316
        0.00287170022916
        0.00289562554548
        0.0029196919747
        0.00294390008108
        0.00296825043061
        0.00299274359096
        0.00301738013155
        0.00304216062349
        0.00306708563965
        0.0030921557546
        0.00311737154466
        0.00314273358788
        0.00316824246407
        0.00319389875478
        0.00321970304331
        0.00324565591473
        0.00327175795586
        0.0032980097553
        0.00332441190341
        0.00335096499235
        0.00337766961605
        0.00340452637022
        0.00343153585237
        0.00345869866181
        0.00348601539965
        0.00351348666882
        0.00354111307403
        0.00356889522184
        0.00359683372061
        0.00362492918054
        0.00365318221367
        0.00368159343385
        0.00371016345679
        0.00373889290005
        0.00376778238303
        0.00379683252699
        0.00382604395507
        0.00385541729226
        0.00388495316541
        0.00391465220327
        0.00394451503647
        0.00397454229752
        0.00400473462082
        0.00403509264267
        0.00406561700129
        0.00409630833678
        0.00412716729117
        0.0041581945084
        0.00418939063435
        0.00422075631681
        0.00425229220551
        0.00428399895213
        0.00431587721028
        0.00434792763552
        0.00438015088538
        0.00441254761934
        0.00444511849884
        0.00447786418731
        0.00451078535013
        0.00454388265469
        0.00457715677034
        0.00461060836844
        0.00464423812235
        0.00467804670742
        0.00471203480102
        0.00474620308253
        0.00478055223335
        0.00481508293691
        0.00484979587865
        0.00488469174607
        0.0049197712287
        0.00495503501813
        0.00499048380799
        0.00502611829396
        0.0050619391738
        0.00509794714734
        0.00513414291648
        0.00517052718519
        0.00520710065954
        0.00524386404769
        0.00528081805989
        0.0053179634085
        0.00535530080799
        0.00539283097495
        0.00543055462806
        0.00546847248816
        0.00550658527821
        0.0055448937233
        0.00558339855068
        0.00562210048973
        0.005661000272
        0.00570009863119
        0.00573939630317
        0.00577889402599
        0.00581859253986
        0.00585849258719
        0.00589859491258
        0.00593890026282
        0.0059794093869
        0.00602012303601
        0.00606104196358
        0.00610216692523
        0.00614349867884
        0.00618503798447
        0.00622678560447
        0.00626874230341
        0.0063109088481
        0.00635328600763
        0.00639587455333
        0.00643867525881
        0.00648168889996
        0.00652491625492
        0.00656835810415
        0.00661201523039
        0.00665588841867
        0.00669997845634
        0.00674428613306
        0.00678881224079
        0.00683355757382
        0.00687852292879
        0.00692370910465
        0.0069691169027
        0.00701474712659
        0.00706060058234
        0.0071066780783
        0.00715298042522
        0.00719950843619
        0.00724626292671
        0.00729324471465
        0.00734045462029
        0.00738789346628
        0.0074355620777
        0.00748346128204
        0.00753159190921
        0.00757995479153
        0.00762855076376
        0.00767738066311
        0.00772644532922
        0.00777574560419
        0.00782528233257
        0.0078750563614
        0.00792506854014
        0.00797531972079
        0.00802581075778
        0.00807654250807
        0.0081275158311
        0.00817873158882
        0.00823019064568
        0.00828189386868
        0.0083338421273
        0.00838603629358
        0.0084384772421
        0.00849116584998
        0.00854410299688
        0.00859728956503
        0.00865072643924
        0.00870441450687
        0.00875835465786
        0.00881254778475
        0.00886699478267
        0.00892169654935
        0.00897665398511
        0.00903186799293
        0.00908733947835
        0.00914306934959
        0.00919905851747
        0.00925530789548
        0.00931181839975
        0.00936859094905
        0.00942562646483
        0.00948292587122
        0.00954049009501
        0.00959832006568
        0.0096564167154
        0.00971478097906
        0.00977341379423
        0.00983231610121
        0.00989148884301
        0.00995093296537
        0.0100106494168
        0.0100706391485
        0.0101309031144
        0.0101914422713
        0.0102522575787
        0.0103133499989
        0.0103747204969
        0.0104363700405
        0.0104982996003
        0.0105605101499
        0.0106230026655
        0.0106857781261
        0.0107488375135
        0.0108121818127
        0.010875812011
        0.0109397290989
        0.0110039340697
        0.0110684279195
        0.0111332116473
        0.011198286255
        0.0112636527474
        0.011329312132
        0.0113952654195
        0.0114615136233
        0.0115280577598
        0.0115948988484
        0.0116620379112
        0.0117294759735
